X: 122
T: Ceremonial Song of the Miwatani
C: Teton Sioux band 1911-1914
N: Derived from sioux122.krn
O: South Dakota, U.S.A.
N: Teton Sioux Music by Frances Densmore, 1918
Z: transcribed to **kern format by Craig Sapp
L: 1/8
M: 2/4
Q: 1/4=58
K: B clef=bass
%%linebreak <none>
D/ [I:setbarnb 1]| 
B,> B, B,/ G, D/ | 
(3(D B,) G, (G,/ ^^F, G,/) | 
D,3C,/ B,,/ | 
(3D, C, B,, B,,3/ F,/ ||  
[M:3/4]D,3C,/ B,,/ C,/ B,,3/ ||  
[M:2/4]G,,> G,,G,,2 | 
G,,4 |]  



